SVG_Azure_All/App Service Scale up.svg

<?xml version="1.0" encoding="UTF-8" standalone="no"?>
<!-- Generated by Microsoft Visio, SVG Export App Service Scale up.svg Page-1 -->

<svg
   xmlns:dc="http://purl.org/dc/elements/1.1/"
   xmlns:cc="http://creativecommons.org/ns#"
   xmlns:rdf="http://www.w3.org/1999/02/22-rdf-syntax-ns#"
   xmlns:svg="http://www.w3.org/2000/svg"
   xmlns="http://www.w3.org/2000/svg"
   xmlns:sodipodi="http://sodipodi.sourceforge.net/DTD/sodipodi-0.dtd"
   xmlns:inkscape="http://www.inkscape.org/namespaces/inkscape"
   width="0.78744191in"
   height="0.78743887in"
   viewBox="0 0 56.695726 56.695581"
   xml:space="preserve"
   class="st4"
   version="1.1"
   id="svg35"
   sodipodi:docname="App Service Scale up.svg"
   style="font-size:12px;overflow:visible;color-interpolation-filters:sRGB;fill:none;fill-rule:evenodd;stroke-linecap:square;stroke-miterlimit:3"
   inkscape:version="0.92.5 (2060ec1f9f, 2020-04-08)"><metadata
   id="metadata39"><rdf:RDF><cc:Work
       rdf:about=""><dc:format>image/svg+xml</dc:format><dc:type
         rdf:resource="http://purl.org/dc/dcmitype/StillImage" /></cc:Work></rdf:RDF></metadata><sodipodi:namedview
   pagecolor="#ffffff"
   bordercolor="#666666"
   borderopacity="1"
   objecttolerance="10"
   gridtolerance="10"
   guidetolerance="10"
   inkscape:pageopacity="0"
   inkscape:pageshadow="2"
   inkscape:window-width="640"
   inkscape:window-height="480"
   id="namedview37"
   showgrid="false"
   inkscape:zoom="1.4193037"
   inkscape:cx="37.795347"
   inkscape:cy="37.786411"
   inkscape:window-x="0"
   inkscape:window-y="0"
   inkscape:window-maximized="0"
   inkscape:current-layer="svg35" />
	<style
   type="text/css"
   id="style2">
	<![CDATA[
		.st1 {fill:url(#grad0-6);stroke:none;stroke-linecap:butt;stroke-width:34}
		.st2 {fill:#b3b3b3;stroke:none;stroke-linecap:butt;stroke-width:34}
		.st3 {fill:#76bc2d;stroke:none;stroke-linecap:butt;stroke-width:34}
		.st4 {fill:none;fill-rule:evenodd;font-size:12px;overflow:visible;stroke-linecap:square;stroke-miterlimit:3}
	]]>
	</style>

	<defs
   id="Patterns_And_Gradients">
		<linearGradient
   id="grad0-6"
   x1="-0.0018242668"
   y1="90.500256"
   x2="34.36664"
   y2="90.500256"
   gradientTransform="scale(1.0012617,0.9987399)"
   gradientUnits="userSpaceOnUse">
			<stop
   offset="0"
   stop-color="#6bb9f2"
   stop-opacity="1"
   id="stop4" />
			<stop
   offset="1"
   stop-color="#1b93eb"
   stop-opacity="1"
   id="stop6" />
		</linearGradient>
	</defs>
	<g
   id="g33"
   transform="translate(-34.000081,-33.998717)">
		<title
   id="title10">Page-1</title>
		<g
   id="group9917-1"
   transform="translate(34,-34.0157)">
			<title
   id="title12">App Service Scale up</title>
			<g
   id="group9918-2">
				<title
   id="title14">MsPortalFx.base.images-54</title>
				<g
   id="shape9919-3"
   transform="translate(22.2858,-22.3718)">
					<title
   id="title16">Sheet.9919</title>
					<path
   d="M 34.41,108.31 V 91.01 A 0.625185,0.623622 -180 0 0 33.770606,90.386378 L 16.44,90.39 a 0.621633,0.620079 -180 0 0 -0.440471,1.06299 L 20.77,96.22 l 0.32,0.31 a 0.628737,0.627165 0 0 1 0,0.882283 L 0.18,118.27 a 0.628737,0.627165 -180 0 0 0,0.88228 L 5.57,124.53 a 0.628737,0.627165 -180 0 0 0.884495,0 L 27.37,103.67 a 0.625185,0.623622 0 0 1 0.884495,0 l 0.315505,0.31 4.77,4.77 a 0.621633,0.620079 -180 0 0 1.06566,-0.43937 z"
   class="st1"
   id="path18"
   inkscape:connector-curvature="0"
   style="fill:url(#grad0-6);stroke:none;stroke-width:34;stroke-linecap:butt" />
				</g>
				<g
   id="shape9920-7"
   transform="translate(7.40276,-8.26299)">
					<title
   id="title21">Sheet.9920</title>
					<path
   d="m 36.55,105.96 v 12.66 a 1.45995,1.4563 0 0 1 -1.45,1.46 H 6.12 A 1.4564,1.45276 0 0 1 4.66,118.62 V 91.34 a 1.4564,1.45276 0 0 1 1.46,-1.45 h 14.52 a 0.799242,0.797244 -180 0 0 0.799242,-0.797244 L 21.44,86.04 A 0.799242,0.797244 -180 0 0 20.640758,85.242756 L 1.46,85.25 A 1.45995,1.4563 -180 0 0 0,86.7 v 36.56 a 1.4564,1.45276 -180 0 0 1.46,1.45 h 38.28 a 1.4564,1.45276 -180 0 0 1.46,-1.45 v -17.3 a 0.799242,0.797244 -180 0 0 -0.802794,-0.79724 L 37.35,105.16 a 0.799242,0.797244 -180 0 0 -0.799242,0.79724 z"
   class="st2"
   id="path23"
   inkscape:connector-curvature="0"
   style="fill:#b3b3b3;stroke:none;stroke-width:34;stroke-linecap:butt" />
				</g>
				<g
   id="shape9921-9">
					<title
   id="title26">Sheet.9921</title>
					<path
   d="m 52.14,121.06 h 3.65 v 3.65 h -3.65 z m -3.73,3.65 h -3.72 v -3.65 h 3.73 z m -7.46,0 h -3.72 v -3.65 h 3.72 z m -7.46,0 h -3.72 v -3.65 h 3.73 z m -7.46,0 h -3.72 v -3.65 h 3.72 z m -7.46,0 h -3.72 v -3.65 h 3.73 z m -7.46,0 H 7.39 v -3.65 h 3.72 z M 0,121.06 h 3.66 v 3.65 H 0 Z m 3.66,-3.72 H 0 v -3.72 h 3.66 z m 0,-7.44 H 0 v -3.72 h 3.66 z m 0,-7.44 H 0 v -3.72 h 3.66 z m 0,-7.44 H 0 V 91.3 h 3.66 z m 0,-7.45 H 0 v -3.7 h 3.66 z m 0,-7.44 H 0 V 76.42 H 3.66 Z M 0,69.06 h 3.66 v 3.65 H 0 Z m 26.03,3.65 h -3.72 v -3.65 h 3.72 z m -7.46,0 h -3.72 v -3.65 h 3.73 z m -7.46,0 H 7.39 v -3.65 h 3.72 z m 44.68,44.63 h -3.64 v -3.72 h 3.65 z m 0,-7.44 h -3.64 v -3.72 h 3.65 z m 0,-7.44 h -3.64 v -3.72 h 3.65 z"
   class="st3"
   id="path28"
   inkscape:connector-curvature="0"
   style="fill:#76bc2d;stroke:none;stroke-width:34;stroke-linecap:butt" />
				</g>
			</g>
		</g>
	</g>
</svg>

<?xml version="1.0" encoding="UTF-8" standalone="no"?>
<!DOCTYPE svg PUBLIC "-//W3C//DTD SVG 1.1//EN" "http://www.w3.org/Graphics/SVG/1.1/DTD/svg11.dtd">
<!-- Generated by Microsoft Visio, SVG Export App Service Scale up.svg Page-1 -->
<svg xmlns="http://www.w3.org/2000/svg" xmlns:xlink="http://www.w3.org/1999/xlink" xmlns:ev="http://www.w3.org/2001/xml-events"
		width="1.73185in" height="1.73207in" viewBox="0 0 124.693 124.709" xml:space="preserve" color-interpolation-filters="sRGB"
		class="st4">
	<style type="text/css">
	<![CDATA[
		.st1 {fill:url(#grad0-6);stroke:none;stroke-linecap:butt;stroke-width:34}
		.st2 {fill:#b3b3b3;stroke:none;stroke-linecap:butt;stroke-width:34}
		.st3 {fill:#76bc2d;stroke:none;stroke-linecap:butt;stroke-width:34}
		.st4 {fill:none;fill-rule:evenodd;font-size:12px;overflow:visible;stroke-linecap:square;stroke-miterlimit:3}
	]]>
	</style>

	<defs id="Patterns_And_Gradients">
		<linearGradient id="grad0-6" x1="0" y1="0" x2="1" y2="0" gradientTransform="rotate(69.776805966304 0.5 0.5)">
			<stop offset="0" stop-color="#6bb9f2" stop-opacity="1"/>
			<stop offset="1" stop-color="#1b93eb" stop-opacity="1"/>
		</linearGradient>
	</defs>
	<g>
		<title>Page-1</title>
		<g id="group9712-1" transform="translate(34,-34.0157)">
			<title>App Service Scale up</title>
			<g id="group9713-2">
				<title>MsPortalFx.base.images-54</title>
				<g id="shape9714-3" transform="translate(22.2858,-22.3718)">
					<title>Sheet.9714</title>
					<path d="M34.41 108.31 L34.41 91.01 a0.625185 0.623622 -180 0 0 -0.639394 -0.623622 L16.44 90.39 a0.621633 0.620079
								 -180 0 0 -0.440471 1.06299 L20.77 96.22 L21.09 96.53 a0.628737 0.627165 0 0 1 6.03961E-14 0.882283
								 L0.18 118.27 a0.628737 0.627165 -180 0 0 -6.21725E-15 0.882283 L5.57 124.53 a0.628737 0.627165 -180
								 0 0 0.884495 0 L27.37 103.67 a0.625185 0.623622 0 0 1 0.884495 7.10543E-14 L28.57 103.98 L33.34
								 108.75 a0.621633 0.620079 -180 0 0 1.06566 -0.43937 Z" class="st1"/>
				</g>
				<g id="shape9715-7" transform="translate(7.40276,-8.26299)">
					<title>Sheet.9715</title>
					<path d="M36.55 105.96 L36.55 118.62 A1.45995 1.4563 0 0 1 35.1 120.08 L6.12 120.08 A1.4564 1.45276 0 0 1 4.66
								 118.62 L4.66 91.34 A1.4564 1.45276 0 0 1 6.12 89.89 L20.64 89.89 a0.799242 0.797244 -180 0 0 0.799242
								 -0.797244 L21.44 86.04 a0.799242 0.797244 -180 0 0 -0.799242 -0.797244 L1.46 85.25 A1.45995 1.4563
								 -180 0 0 0 86.7 L0 123.26 A1.4564 1.45276 -180 0 0 1.46 124.71 L39.74 124.71 A1.4564 1.45276 -180
								 0 0 41.2 123.26 L41.2 105.96 a0.799242 0.797244 -180 0 0 -0.802794 -0.797244 L37.35 105.16 a0.799242
								 0.797244 -180 0 0 -0.799242 0.797244 Z" class="st2"/>
				</g>
				<g id="shape9716-9">
					<title>Sheet.9716</title>
					<path d="M52.14 121.06 L55.79 121.06 L55.79 124.71 L52.14 124.71 L52.14 121.06 ZM48.41 124.71 L44.69 124.71 L44.69
								 121.06 L48.42 121.06 L48.41 124.71 ZM40.95 124.71 L37.23 124.71 L37.23 121.06 L40.95 121.06 L40.95
								 124.71 ZM33.49 124.71 L29.77 124.71 L29.77 121.06 L33.5 121.06 L33.49 124.71 ZM26.03 124.71 L22.31
								 124.71 L22.31 121.06 L26.03 121.06 L26.03 124.71 ZM18.57 124.71 L14.85 124.71 L14.85 121.06 L18.58
								 121.06 L18.57 124.71 ZM11.11 124.71 L7.39 124.71 L7.39 121.06 L11.11 121.06 L11.11 124.71 ZM0 121.06
								 L3.66 121.06 L3.66 124.71 L0 124.71 L0 121.06 ZM3.66 117.34 L0 117.34 L0 113.62 L3.66 113.62 L3.66
								 117.34 ZM3.66 109.9 L0 109.9 L0 106.18 L3.66 106.18 L3.66 109.9 ZM3.66 102.46 L0 102.46 L0 98.74
								 L3.66 98.74 L3.66 102.46 ZM3.66 95.02 L0 95.02 L0 91.3 L3.66 91.3 L3.66 95.02 ZM3.66 87.57 L0 87.57
								 L0 83.87 L3.66 83.87 L3.66 87.57 ZM3.66 80.13 L0 80.13 L0 76.42 L3.66 76.42 L3.66 80.13 ZM0 69.06
								 L3.66 69.06 L3.66 72.71 L0 72.71 L0 69.06 ZM26.03 72.71 L22.31 72.71 L22.31 69.06 L26.03 69.06 L26.03
								 72.71 ZM18.57 72.71 L14.85 72.71 L14.85 69.06 L18.58 69.06 L18.57 72.71 ZM11.11 72.71 L7.39 72.71
								 L7.39 69.06 L11.11 69.06 L11.11 72.71 ZM55.79 117.34 L52.15 117.34 L52.15 113.62 L55.8 113.62 L55.79
								 117.34 ZM55.79 109.9 L52.15 109.9 L52.15 106.18 L55.8 106.18 L55.79 109.9 ZM55.79 102.46 L52.15
								 102.46 L52.15 98.74 L55.8 98.74 L55.79 102.46 Z" class="st3"/>
				</g>
			</g>
		</g>
	</g>
</svg>
